dist/img/main/student.svg

<svg min-width="48" min-height="48" viewBox="0 0 48 48" fill="none" xmlns="http://www.w3.org/2000/svg">
<g clip-path="url(#clip0_68_8584)">
<path d="M32.6683 39.0001H15.3322C14.4521 39.0001 13.8389 38.1211 14.1484 37.2972C14.5337 36.2714 15.0851 35.347 15.7636 34.5683C17.1449 32.9831 19.0525 32.0024 21.1606 32.0024H26.8399C29.9817 32.0024 32.6798 34.1807 33.8504 37.2928C34.161 38.1184 33.5504 39.0001 32.6683 39.0001Z" fill="#084D5B"/>
<path d="M33.8515 37.2971C32.9264 34.8343 31.0449 32.9555 28.7437 32.2773C28.7209 32.2706 28.6964 32.2644 28.6708 32.2585C28.0839 32.0924 27.4709 32.0024 26.8393 32.0024H21.16C20.502 32.0024 19.8635 32.098 19.2545 32.2776C20.5544 33.3196 22.2041 33.9433 23.9996 33.9433C24.9137 33.9433 25.79 33.7817 26.6015 33.4855C27.592 33.1239 28.7011 33.3707 29.4526 34.1104C30.3288 34.9729 31.0326 36.0595 31.4965 37.2928C31.8071 38.1184 31.1964 39 30.3143 39H32.6676C33.5478 39.0001 34.1609 38.121 33.8515 37.2971Z" fill="#003D48"/>
<path d="M25.762 35.7533L24.5718 37.168C24.2731 37.5231 23.7264 37.5231 23.4276 37.168L22.2374 35.7533C21.733 35.1538 21.4564 34.3955 21.4564 33.612V31.5806H26.543V33.612C26.543 34.3955 26.2664 35.1538 25.762 35.7533Z" fill="url(#paint0_linear_68_8584)"/>
<path d="M21.4565 33.5064C22.2517 33.789 23.1077 33.9434 23.9998 33.9434C24.8919 33.9434 25.7479 33.789 26.5431 33.5064V31.5806H21.4565V33.5064Z" fill="url(#paint1_linear_68_8584)"/>
<path d="M23.9997 32.4727C19.8063 32.4727 16.4069 29.0733 16.4069 24.88V22.684C16.4069 18.4906 19.8063 15.0913 23.9996 15.0913C28.193 15.0913 31.5923 18.4907 31.5923 22.684V24.88C31.5924 29.0734 28.193 32.4727 23.9997 32.4727Z" fill="url(#paint2_linear_68_8584)"/>
<path d="M31.0909 19.9637C31.0909 19.9637 31.0903 19.9632 31.0901 19.9631C30.8909 19.443 30.6358 18.9505 30.3324 18.4932C30.0508 18.0686 29.7274 17.6735 29.3687 17.3148C27.995 15.9405 26.0968 15.0908 23.9999 15.0908C21.3555 15.0908 19.0268 16.4427 17.6673 18.4932C17.3639 18.9507 17.1086 19.4435 16.9093 19.9639H26.5164C28.0078 19.9639 29.2336 21.1635 29.2392 22.6549C29.2392 22.6645 29.2392 22.674 29.2392 22.6836V24.8797C29.2392 28.6727 26.4577 31.816 22.8232 32.3815C23.2067 32.4412 23.5996 32.4723 23.9999 32.4723C28.1932 32.4723 31.5926 29.073 31.5926 24.8797V22.6836C31.5926 21.7251 31.415 20.8081 31.0909 19.9637Z" fill="url(#paint3_linear_68_8584)"/>
<path d="M24.2094 17.2427L23.7723 18.5002C23.1938 20.1648 21.6248 21.2806 19.8625 21.2806C18.7799 21.2806 17.7416 21.7106 16.9761 22.4762L16.4091 23.0431C15.4722 21.5476 15.467 19.6496 16.3956 18.1489L16.9564 17.2427H24.2094Z" fill="url(#paint4_linear_68_8584)"/>
<path d="M20.7312 17.2427L21.1683 18.5002C21.7469 20.1648 23.3159 21.2806 25.0782 21.2806H28.1374C29.2199 21.2806 30.2582 21.7106 31.0237 22.4762L31.5907 23.0431C32.5276 21.5476 32.5328 19.6496 31.6042 18.1489L31.0434 17.2427H20.7312Z" fill="url(#paint5_linear_68_8584)"/>
<path d="M32.2974 20.5851C32.2974 21.4372 32.0622 22.2892 31.5924 23.0401C31.5918 23.0413 31.5912 23.0419 31.5906 23.0431L31.0238 22.4762C30.4392 21.8917 29.696 21.503 28.8956 21.3519C28.4282 20.5228 27.5343 19.9641 26.5164 19.9641H22.0509C21.6657 19.5513 21.3617 19.0562 21.1682 18.4999L20.7313 17.2427H31.0437L31.6041 18.1488C32.0663 18.8957 32.2974 19.7401 32.2974 20.5851Z" fill="url(#paint6_linear_68_8584)"/>
<path d="M20.6855 25.7948C19.8186 25.7948 19.1134 25.0895 19.1134 24.2228C19.1134 23.9792 19.3109 23.7817 19.5544 23.7817C19.798 23.7817 19.9955 23.9792 19.9955 24.2228C19.9955 24.6032 20.305 24.9127 20.6855 24.9127C21.0659 24.9127 21.3754 24.6032 21.3754 24.2228C21.3754 23.9792 21.5729 23.7817 21.8164 23.7817C22.06 23.7817 22.2575 23.9792 22.2575 24.2228C22.2575 25.0895 21.5523 25.7948 20.6855 25.7948Z" fill="#003D48"/>
<path d="M27.315 25.7948C26.4482 25.7948 25.743 25.0895 25.743 24.2228C25.743 23.9792 25.9405 23.7817 26.1841 23.7817C26.4276 23.7817 26.6251 23.9792 26.6251 24.2228C26.6251 24.6032 26.9346 24.9127 27.315 24.9127C27.6955 24.9127 28.0051 24.6032 28.0051 24.2228C28.0051 23.9792 28.2025 23.7817 28.4461 23.7817C28.6896 23.7817 28.8871 23.9792 28.8871 24.2228C28.8871 25.0895 28.1819 25.7948 27.315 25.7948Z" fill="url(#paint7_linear_68_8584)"/>
<path d="M24.0003 30.511C23.0275 30.511 22.0852 30.0559 21.3471 29.2294C21.1848 29.0478 21.2005 28.769 21.3822 28.6068C21.5637 28.4445 21.8426 28.4602 22.0048 28.6419C22.5817 29.2876 23.2717 29.6289 24.0003 29.6289C24.729 29.6289 25.419 29.2876 25.9958 28.6419C26.1581 28.4602 26.4369 28.4445 26.6185 28.6068C26.8002 28.769 26.8159 29.0478 26.6536 29.2294C25.9155 30.0559 24.9731 30.511 24.0003 30.511Z" fill="url(#paint8_linear_68_8584)"/>
<path d="M29.444 11H15.7414C15.3319 11 15 11.3319 15 11.7414V17.4727C15 17.8822 15.3319 18.2141 15.7414 18.2141H29.444C29.8534 18.2141 30.1854 17.8822 30.1854 17.4727V11.7415C30.1854 11.3319 29.8534 11 29.444 11Z" fill="url(#paint9_linear_68_8584)"/>
<path d="M32 11.7195V17.2805C32 17.6778 31.6283 18 31.1699 18H28.5354C28.9935 18 29.3655 17.6776 29.3655 17.2805V14.821C29.3655 13.9218 28.5244 13.1928 27.4869 13.1928H15V11.7195C15 11.3218 15.3719 11 15.8301 11H31.1699C31.6281 11 32 11.3218 32 11.7195Z" fill="url(#paint10_linear_68_8584)"/>
<path d="M15.3198 10.7385V14.6046C15.3198 15.0106 14.9908 15.3397 14.5848 15.3397C14.1788 15.3397 13.8497 15.0106 13.8497 14.6046V10.7385C13.8497 10.3325 14.1788 10.0034 14.5848 10.0034C14.9907 10.0034 15.3198 10.3325 15.3198 10.7385Z" fill="#094F5E"/>
<path d="M13.5514 14.7302C13.8683 14.4132 14.3053 14.2598 14.7598 14.3124C15.0196 14.3425 15.268 14.4442 15.4747 14.6044C16.1837 15.1539 16.2313 16.1825 15.6175 16.7963L15.0665 17.3473C14.8003 17.6136 14.3686 17.6136 14.1024 17.3473L13.5514 16.7963C12.9817 16.2267 12.9817 15.2998 13.5514 14.7302Z" fill="url(#paint11_linear_68_8584)"/>
<path d="M15.4746 14.6043C15.3932 14.5412 15.3051 14.4875 15.2126 14.4434C15.2814 14.6254 15.3194 14.8225 15.3194 15.0286C15.3194 15.9426 14.5784 16.6835 13.6644 16.6835C13.5877 16.6835 13.5122 16.6778 13.4382 16.6677C13.4732 16.712 13.5103 16.7552 13.5513 16.7962L14.1022 17.3472C14.3684 17.6134 14.8001 17.6134 15.0663 17.3472L15.6173 16.7962C16.2312 16.1824 16.1836 15.1538 15.4746 14.6043Z" fill="url(#paint12_linear_68_8584)"/>
<path d="M33.6533 12.0686H14.3468C13.4994 12.0686 12.8125 11.3817 12.8125 10.5343C12.8125 9.68695 13.4994 9 14.3468 9H33.6533C34.5006 9 35.1876 9.68695 35.1876 10.5343C35.1876 11.3817 34.5006 12.0686 33.6533 12.0686Z" fill="url(#paint13_linear_68_8584)"/>
<path d="M33.6529 9H31.2996C32.1469 9 32.8339 9.68695 32.8339 10.5343C32.8339 11.3817 32.1469 12.0686 31.2996 12.0686H33.6529C34.5003 12.0686 35.1872 11.3817 35.1872 10.5343C35.1872 9.68695 34.5003 9 33.6529 9Z" fill="url(#paint14_linear_68_8584)"/>
</g>
<defs>
<linearGradient id="paint0_linear_68_8584" x1="21.4565" y1="34.5075" x2="26.543" y2="34.5075" gradientUnits="userSpaceOnUse">
<stop stop-color="#FFDCBD"/>
<stop offset="0.0028" stop-color="#FFDCBD"/>
<stop offset="1" stop-color="#FFA9B1"/>
</linearGradient>
<linearGradient id="paint1_linear_68_8584" x1="21.4565" y1="32.762" x2="26.5431" y2="32.762" gradientUnits="userSpaceOnUse">
<stop stop-color="#FFC2B5"/>
<stop offset="1" stop-color="#FF89A8"/>
</linearGradient>
<linearGradient id="paint2_linear_68_8584" x1="16.4069" y1="23.782" x2="31.5924" y2="23.782" gradientUnits="userSpaceOnUse">
<stop stop-color="#FFDCBD"/>
<stop offset="0.0028" stop-color="#FFDCBD"/>
<stop offset="1" stop-color="#FFA9B1"/>
</linearGradient>
<linearGradient id="paint3_linear_68_8584" x1="22.569" y1="23.7816" x2="35.0318" y2="23.7816" gradientUnits="userSpaceOnUse">
<stop stop-color="#FFC2B5"/>
<stop offset="1" stop-color="#FF89A8"/>
</linearGradient>
<linearGradient id="paint4_linear_68_8584" x1="14.6897" y1="20.1429" x2="24.3081" y2="20.1429" gradientUnits="userSpaceOnUse">
<stop stop-color="#FFE177"/>
<stop offset="0.5725" stop-color="#FEB137"/>
<stop offset="1" stop-color="#FE646F"/>
</linearGradient>
<linearGradient id="paint5_linear_68_8584" x1="19.4616" y1="20.1429" x2="33.446" y2="20.1429" gradientUnits="userSpaceOnUse">
<stop stop-color="#FFE177"/>
<stop offset="0.5725" stop-color="#FEB137"/>
<stop offset="1" stop-color="#FE646F"/>
</linearGradient>
<linearGradient id="paint6_linear_68_8584" x1="14.9733" y1="20.1429" x2="31.9439" y2="20.1429" gradientUnits="userSpaceOnUse">
<stop stop-color="#FFE177"/>
<stop offset="0.5725" stop-color="#FEB137"/>
</linearGradient>
<linearGradient id="paint7_linear_68_8584" x1="24.2161" y1="24.7882" x2="29.0616" y2="24.7882" gradientUnits="userSpaceOnUse">
<stop stop-color="#003D48"/>
</linearGradient>
<linearGradient id="paint8_linear_68_8584" x1="20.5309" y1="29.5028" x2="24.8519" y2="29.5028" gradientUnits="userSpaceOnUse">
<stop stop-color="#FFC2B5"/>
<stop offset="0.2441" stop-color="#FFBBB3"/>
<stop offset="0.6097" stop-color="#FFA6AF"/>
<stop offset="1" stop-color="#FF89A8"/>
</linearGradient>
<linearGradient id="paint9_linear_68_8584" x1="15.5426" y1="14.6071" x2="29.9039" y2="14.6071" gradientUnits="userSpaceOnUse">
<stop stop-color="#54A1D3"/>
</linearGradient>
<linearGradient id="paint10_linear_68_8584" x1="11.7822" y1="14.5" x2="36.3608" y2="14.5" gradientUnits="userSpaceOnUse">
<stop stop-color="#54A1D3"/>
</linearGradient>
<linearGradient id="paint11_linear_68_8584" x1="12.8868" y1="15.9246" x2="16.4042" y2="15.9246" gradientUnits="userSpaceOnUse">
<stop stop-color="#003D48"/>
</linearGradient>
<linearGradient id="paint12_linear_68_8584" x1="11.1345" y1="15.9951" x2="16.6158" y2="15.9951" gradientUnits="userSpaceOnUse">
<stop stop-color="#094F5E"/>
</linearGradient>
<linearGradient id="paint13_linear_68_8584" x1="14.2532" y1="10.5343" x2="33.8722" y2="10.5343" gradientUnits="userSpaceOnUse">
<stop stop-color="#54A1D3"/>
</linearGradient>
<linearGradient id="paint14_linear_68_8584" x1="23.0431" y1="10.5343" x2="35.1152" y2="10.5343" gradientUnits="userSpaceOnUse">
<stop stop-color="#54A1D3"/>
</linearGradient>
<clipPath id="clip0_68_8584">
<rect width="30" height="30" fill="white" transform="translate(9 9)"/>
</clipPath>
</defs>
</svg>

<svg viewBox="0 0 48 48" fill="none" xmlns="http://www.w3.org/2000/svg"><g clip-path="url(#clip0_68_8584)"><path d="M32.668 39H15.332c-.88 0-1.493-.879-1.184-1.703a8.932 8.932 0 011.616-2.729c1.38-1.585 3.288-2.566 5.397-2.566h5.679c3.142 0 5.84 2.179 7.01 5.29.311.826-.3 1.708-1.182 1.708z" fill="#084D5B"/><path d="M33.852 37.297c-.926-2.463-2.807-4.341-5.108-5.02a6.71 6.71 0 00-1.904-.275h-5.68a6.7 6.7 0 00-1.905.276A7.56 7.56 0 0024 33.943a7.58 7.58 0 002.602-.457 2.73 2.73 0 012.85.624 8.813 8.813 0 012.044 3.183c.311.825-.3 1.707-1.182 1.707h2.354c.88 0 1.493-.879 1.184-1.703z" fill="#003D48"/><path d="M25.762 35.753l-1.19 1.415a.748.748 0 01-1.144 0l-1.19-1.415a3.326 3.326 0 01-.782-2.141v-2.031h5.087v2.031c0 .783-.277 1.542-.781 2.141z" fill="url(#paint0_linear_68_8584)"/><path d="M21.456 33.506a7.58 7.58 0 002.544.437 7.58 7.58 0 002.543-.437v-1.925h-5.087v1.925z" fill="url(#paint1_linear_68_8584)"/><path d="M24 32.473a7.593 7.593 0 01-7.593-7.593v-2.196a7.593 7.593 0 1115.185 0v2.196A7.593 7.593 0 0124 32.473z" fill="url(#paint2_linear_68_8584)"/><path d="M31.09 19.964a7.637 7.637 0 00-1.721-2.648 7.567 7.567 0 00-5.37-2.225 7.586 7.586 0 00-7.09 4.873h9.607c1.492 0 2.718 1.2 2.723 2.69v2.226a7.594 7.594 0 01-6.416 7.502 7.593 7.593 0 008.77-7.502v-2.196c0-.959-.178-1.876-.502-2.72z" fill="url(#paint3_linear_68_8584)"/><path d="M24.21 17.243l-.438 1.257a4.14 4.14 0 01-3.91 2.78c-1.082 0-2.12.43-2.886 1.196l-.567.567a4.63 4.63 0 01-.013-4.894l.56-.906h7.253z" fill="url(#paint4_linear_68_8584)"/><path d="M20.731 17.243l.437 1.257a4.14 4.14 0 003.91 2.78h3.06c1.082 0 2.12.43 2.886 1.196l.567.567a4.63 4.63 0 00.013-4.894l-.56-.906H20.73z" fill="url(#paint5_linear_68_8584)"/><path d="M32.297 20.585c0 .852-.235 1.704-.705 2.455l-.001.003-.567-.567a4.08 4.08 0 00-2.128-1.124 2.731 2.731 0 00-2.38-1.388h-4.465a4.134 4.134 0 01-.883-1.464l-.437-1.257h10.313l.56.906c.462.747.693 1.591.693 2.436z" fill="url(#paint6_linear_68_8584)"/><path d="M20.686 25.795a1.574 1.574 0 01-1.573-1.572.441.441 0 11.883 0 .69.69 0 001.38 0 .441.441 0 11.881 0c0 .867-.705 1.572-1.572 1.572z" fill="#003D48"/><path d="M27.315 25.795a1.574 1.574 0 01-1.572-1.572.441.441 0 01.882 0 .69.69 0 001.38 0 .441.441 0 11.882 0c0 .867-.705 1.572-1.572 1.572z" fill="url(#paint7_linear_68_8584)"/><path d="M24 30.511c-.973 0-1.915-.455-2.653-1.282a.44.44 0 11.658-.587c.577.646 1.267.987 1.995.987.729 0 1.419-.341 1.996-.987a.44.44 0 11.658.587c-.738.827-1.68 1.282-2.654 1.282z" fill="url(#paint8_linear_68_8584)"/><path d="M29.444 11H15.741a.741.741 0 00-.741.741v5.732c0 .41.332.741.741.741h13.703a.74.74 0 00.741-.741v-5.731a.741.741 0 00-.741-.742z" fill="url(#paint9_linear_68_8584)"/><path d="M32 11.72v5.56c0 .398-.372.72-.83.72h-2.635c.459 0 .83-.322.83-.72v-2.459c0-.9-.84-1.628-1.878-1.628H15V11.72c0-.398.372-.72.83-.72h15.34c.458 0 .83.322.83.72z" fill="url(#paint10_linear_68_8584)"/><path d="M15.32 10.739v3.866a.735.735 0 11-1.47 0v-3.867a.735.735 0 111.47 0z" fill="#094F5E"/><path d="M13.551 14.73a1.456 1.456 0 011.924-.126c.709.55.756 1.579.143 2.192l-.552.551a.682.682 0 01-.964 0l-.55-.55a1.462 1.462 0 010-2.067z" fill="url(#paint11_linear_68_8584)"/><path d="M15.475 14.604a1.436 1.436 0 00-.262-.16 1.655 1.655 0 01-1.774 2.224c.034.044.071.087.112.128l.551.551a.682.682 0 00.964 0l.551-.55a1.463 1.463 0 00-.142-2.193z" fill="url(#paint12_linear_68_8584)"/><path d="M33.653 12.069H14.347a1.534 1.534 0 110-3.069h19.306a1.534 1.534 0 010 3.069z" fill="url(#paint13_linear_68_8584)"/><path d="M33.653 9H31.3a1.534 1.534 0 010 3.069h2.353a1.534 1.534 0 100-3.069z" fill="url(#paint14_linear_68_8584)"/></g><defs><linearGradient id="paint0_linear_68_8584" x1="21.456" y1="34.508" x2="26.543" y2="34.508" gradientUnits="userSpaceOnUse"><stop stop-color="#FFDCBD"/><stop offset=".003" stop-color="#FFDCBD"/><stop offset="1" stop-color="#FFA9B1"/></linearGradient><linearGradient id="paint1_linear_68_8584" x1="21.456" y1="32.762" x2="26.543" y2="32.762" gradientUnits="userSpaceOnUse"><stop stop-color="#FFC2B5"/><stop offset="1" stop-color="#FF89A8"/></linearGradient><linearGradient id="paint2_linear_68_8584" x1="16.407" y1="23.782" x2="31.592" y2="23.782" gradientUnits="userSpaceOnUse"><stop stop-color="#FFDCBD"/><stop offset=".003" stop-color="#FFDCBD"/><stop offset="1" stop-color="#FFA9B1"/></linearGradient><linearGradient id="paint3_linear_68_8584" x1="22.569" y1="23.782" x2="35.032" y2="23.782" gradientUnits="userSpaceOnUse"><stop stop-color="#FFC2B5"/><stop offset="1" stop-color="#FF89A8"/></linearGradient><linearGradient id="paint4_linear_68_8584" x1="14.69" y1="20.143" x2="24.308" y2="20.143" gradientUnits="userSpaceOnUse"><stop stop-color="#FFE177"/><stop offset=".573" stop-color="#FEB137"/><stop offset="1" stop-color="#FE646F"/></linearGradient><linearGradient id="paint5_linear_68_8584" x1="19.462" y1="20.143" x2="33.446" y2="20.143" gradientUnits="userSpaceOnUse"><stop stop-color="#FFE177"/><stop offset=".573" stop-color="#FEB137"/><stop offset="1" stop-color="#FE646F"/></linearGradient><linearGradient id="paint6_linear_68_8584" x1="14.973" y1="20.143" x2="31.944" y2="20.143" gradientUnits="userSpaceOnUse"><stop stop-color="#FFE177"/><stop offset=".573" stop-color="#FEB137"/></linearGradient><linearGradient id="paint7_linear_68_8584" x1="24.216" y1="24.788" x2="29.062" y2="24.788" gradientUnits="userSpaceOnUse"><stop stop-color="#003D48"/></linearGradient><linearGradient id="paint8_linear_68_8584" x1="20.531" y1="29.503" x2="24.852" y2="29.503" gradientUnits="userSpaceOnUse"><stop stop-color="#FFC2B5"/><stop offset=".244" stop-color="#FFBBB3"/><stop offset=".61" stop-color="#FFA6AF"/><stop offset="1" stop-color="#FF89A8"/></linearGradient><linearGradient id="paint9_linear_68_8584" x1="15.543" y1="14.607" x2="29.904" y2="14.607" gradientUnits="userSpaceOnUse"><stop stop-color="#54A1D3"/></linearGradient><linearGradient id="paint10_linear_68_8584" x1="11.782" y1="14.5" x2="36.361" y2="14.5" gradientUnits="userSpaceOnUse"><stop stop-color="#54A1D3"/></linearGradient><linearGradient id="paint11_linear_68_8584" x1="12.887" y1="15.925" x2="16.404" y2="15.925" gradientUnits="userSpaceOnUse"><stop stop-color="#003D48"/></linearGradient><linearGradient id="paint12_linear_68_8584" x1="11.134" y1="15.995" x2="16.616" y2="15.995" gradientUnits="userSpaceOnUse"><stop stop-color="#094F5E"/></linearGradient><linearGradient id="paint13_linear_68_8584" x1="14.253" y1="10.534" x2="33.872" y2="10.534" gradientUnits="userSpaceOnUse"><stop stop-color="#54A1D3"/></linearGradient><linearGradient id="paint14_linear_68_8584" x1="23.043" y1="10.534" x2="35.115" y2="10.534" gradientUnits="userSpaceOnUse"><stop stop-color="#54A1D3"/></linearGradient><clipPath id="clip0_68_8584"><path fill="#fff" transform="translate(9 9)" d="M0 0h30v30H0z"/></clipPath></defs></svg>
